X: 30339
T: Old Mother Flanagan
R: reel
M: 4/4
K: Amajor
|:a2 aa fecd|efec BAFE|ABAF EFAB|cBcd e4|
a2 aa fecd|efec BAFE|ABAF EFAB|cAB2 A4:|
|:A2 AB AFEF|cAcA BAFE|ABAF EFAB|cBcd e2A2|
d2 fd c2 ec|BABc BAFE|ABAF EFAB|cAB2 A4:|

